src/pos-icons/bell-remove.svg

<svg height="24" viewBox="0 0 24 24" width="24" xmlns="http://www.w3.org/2000/svg"><path d="m20.12 14.46-2.12 2.13-2.12-2.13-1.42 1.42 2.13 2.12-2.13 2.12 1.42 1.42 2.12-2.13 2.12 2.13 1.42-1.42-2.13-2.12 2.13-2.12m-9.54-13.88c-1.1 0-2 .9-2 2v.29c-2.88.85-5 3.53-5 6.71v6l-2 2v1h9.35c-.23-.64-.35-1.32-.35-2 0-3.31 2.69-6 6-6 .34 0 .67.03 1 .09v-1.09c0-3.18-2.12-5.86-5-6.71 0-.1 0-.19 0-.29 0-1.1-.89-2-2-2m-2 19c0 1.11.9 2 2 2 .66 0 1.28-.33 1.65-.87-.32-.34-.6-.72-.84-1.13z"/></svg>

<?xml version="1.0" encoding="UTF-8"?><!DOCTYPE svg PUBLIC "-//W3C//DTD SVG 1.1//EN" "http://www.w3.org/Graphics/SVG/1.1/DTD/svg11.dtd"><svg xmlns="http://www.w3.org/2000/svg" xmlns:xlink="http://www.w3.org/1999/xlink" version="1.1" id="mdi-bell-remove" width="24" height="24" viewBox="0 0 24 24"><path d="M20.12 14.46L18 16.59L15.88 14.46L14.46 15.88L16.59 18L14.46 20.12L15.88 21.54L18 19.41L20.12 21.54L21.54 20.12L19.41 18L21.54 15.88M12 2C10.9 2 10 2.9 10 4C10 4.1 10 4.19 10 4.29C7.12 5.14 5 7.82 5 11V17L3 19V20H12.35C12.12 19.36 12 18.68 12 18C12 14.69 14.69 12 18 12C18.34 12 18.67 12.03 19 12.09V11C19 7.82 16.88 5.14 14 4.29C14 4.19 14 4.1 14 4C14 2.9 13.11 2 12 2M10 21C10 22.11 10.9 23 12 23C12.66 23 13.28 22.67 13.65 22.13C13.33 21.79 13.05 21.41 12.81 21Z" /></svg>
